public/assets/efnistakn/fjarmal_03.svg

<svg version="1.1" id="Layer_1" xmlns="http://www.w3.org/2000/svg" x="0" y="0" viewBox="0 0 80 80" xml:space="preserve"><style>.st0{fill:#fff}</style><path d="M41.5 31.7V15.9c-.1-2.7-.7-5.8 1.4-8C49.6 1 63.7.8 71 6.9c1.1.8 1.7 2 2.5 2.9.9.3 1.5 1.2 1.3 2.2.3 8.2-.2 16.5.5 24.6-.8 7.1-.7 14.3-.1 21.4-.1 1-.1 2.2 1 2.7 2.9 2.2.1 6.8-1.8 9C71 73.8 66 76.4 60.7 77c-5.9 1.1-11.9-.4-16.8-3.8-7.1 2.4-14.2 4.9-21.8 4.7-6.3-.5-14.3-1-18.4-6.4-4.1-7.2 6-10 11.2-11.4-.3-5.6-4.9-23.8.3-26.8 7.7-4.5 17.9-4.5 26.3-1.6zm15.9-14c4.1 0 8.7-.9 11.6-4 1.9-2-.9-4.6-2.9-5.2-5.2-2.3-11.3-2.3-16.5-.2-10.6 4.8 2 9.9 7.8 9.4zM41 36.5c-6-3.9-17.8-3.3-23.8.6 5.6 4.1 17.8 2.8 23.8-.6zm5.3 3.8c.1 4.5.2 3.5 4.1 4.9 6.6 2.6 13.6 1.3 20-1.3.7-.8.1-2.2.3-3.4-8.1 3.4-16.2 2.8-24.4-.2zm-.3-4.5c7.5 3.7 16.6 3.7 24.4.5 1-.6.3-2 .5-3.1-8.2 3.7-17 2.6-24.9-.9v3.5zm-.3-7.7c5.4 2 11.3 4.1 17.1 3.1 2.7-.6 6-1.1 8.1-3 .1-.9 0-1.8 0-2.8-9.1 4.4-16.1 3.4-25.2-.4v3.1zM16.9 42c-.1 1.7-.1 1.7 1.3 2.3 3.7 2.1 8 2 12.1 2.4 4.1.5 7.8-.7 11.5-2.1 1-.9.1-2.6.3-3.9-7.7 3.8-17.1 4.1-25.2 1.3zm29.8 6c.2 7.4 17.1 5.5 21.9 3.6 2.6-1.1 2-.3 2-3.1 0-.1 0-.1-.1-.3-7.7 3.6-16 3.3-23.8-.2zm-28.3 7l.2 1.6c1.7.5 3.3 1 4.9 1.3 6.5 1.4 13.1 2.4 19.6.2l-.1-3c-8 3.4-16.4 1.5-24.6-.1zm26.9-36c0 1.8 1.4 2.3 2.8 2.8 3.7 1.1 7.5 2.6 11.5 2.4C63 23.9 71.5 22.4 71 18c-8.3 5-16.8 5-25.7 1zm2 37.5c6.7 3.3 15.8 5.5 22.5 1.2 1.3-.7 1.3-.8.9-2.3-7.2 2.8-15 2.6-22.4.5-.9-.3-1.1-.1-1 .6zm-29.8-8.1c.2.6 0 1.8.6 2.3 3.4 1.3 7.2 1.5 10.8 2 4.2.5 8.4.1 12.4-1.3 1.7-.5 1.8-.9 1.2-2.6-8.3 3.2-16.7 2.6-25-.4zm1.6 12.4c.4 2.7 2.4 3.4 4.7 3.8 4.3.1 8.7.5 12.9-.6-4.5 0-8.9-.7-17.6-3.2zm29.2.5c5.9 5.2 15.6 5.5 22 .9-7 3.3-15 1.9-22-.9z"/><path class="st0" d="M63.7 8.9c-2.1.4-4.1.8-6.2 1.2-2.3.7-9.5-.1-7.1 4 .9 1.1 2.2.7 3.3.3 3.4-.4 6.9-.8 10.3-1.2 2.8-.3 2.6-4.4-.3-4.3z"/><path d="M63.7 8.9c2.8-.2 3.1 4.1.3 4.4-3.4.4-6.9.8-10.3 1.2-1.4.6-3.2.6-3.7-1.1-.7-3.6 5.3-2.5 7.5-3.3 2.1-.3 4.2-.8 6.2-1.2z"/></svg>

<?xml version="1.0" encoding="utf-8"?><!--Generator: Adobe Illustrator 24.3.0, SVG Export Plug-In . SVG Version: 6.00 Build 0)--><svg version="1.1" id="Layer_1" xmlns="http://www.w3.org/2000/svg" xmlns:xlink="http://www.w3.org/1999/xlink" x="0px" y="0px" viewBox="0 0 80 80" style="enable-background:new 0 0 80 80" xml:space="preserve"><style type="text/css">.st0{fill:#FFFFFF;}</style><path d="M41.5,31.7c0-5.2,0-10.5,0-15.8c-0.1-2.7-0.7-5.8,1.4-8C49.6,1,63.7,0.8,71,6.9c1.1,0.8,1.7,2,2.5,2.9
	c0.9,0.3,1.5,1.2,1.3,2.2c0.3,8.2-0.2,16.5,0.5,24.6c-0.8,7.1-0.7,14.3-0.1,21.4c-0.1,1-0.1,2.2,1,2.7c2.9,2.2,0.1,6.8-1.8,9
	C71,73.8,66,76.4,60.7,77c-5.9,1.1-11.9-0.4-16.8-3.8c-7.1,2.4-14.2,4.9-21.8,4.7c-6.3-0.5-14.3-1-18.4-6.4c-4.1-7.2,6-10,11.2-11.4
	c-0.3-5.6-4.9-23.8,0.3-26.8C22.9,28.8,33.1,28.8,41.5,31.7z M57.4,17.7c4.1,0,8.7-0.9,11.6-4c1.9-2-0.9-4.6-2.9-5.2
	c-5.2-2.3-11.3-2.3-16.5-0.2C39,13.1,51.6,18.2,57.4,17.7L57.4,17.7z M41,36.5c-6-3.9-17.8-3.3-23.8,0.6C22.8,41.2,35,39.9,41,36.5z
	 M46.3,40.3c0.1,4.5,0.2,3.5,4.1,4.9c6.6,2.6,13.6,1.3,20-1.3c0.7-0.8,0.1-2.2,0.3-3.4C62.6,43.9,54.5,43.3,46.3,40.3L46.3,40.3z
	 M46,35.8c7.5,3.7,16.6,3.7,24.4,0.5c1-0.6,0.3-2,0.5-3.1c-8.2,3.7-17,2.6-24.9-0.9L46,35.8z M45.7,28.1c5.4,2,11.3,4.1,17.1,3.1
	c2.7-0.6,6-1.1,8.1-3c0.1-0.9,0-1.8,0-2.8c-9.1,4.4-16.1,3.4-25.2-0.4L45.7,28.1z M16.9,42c-0.1,1.7-0.1,1.7,1.3,2.3
	c3.7,2.1,8,2,12.1,2.4c4.1,0.5,7.8-0.7,11.5-2.1c1-0.9,0.1-2.6,0.3-3.9C34.4,44.5,25,44.8,16.9,42z M46.7,48
	c0.2,7.4,17.1,5.5,21.9,3.6c2.6-1.1,2-0.3,2-3.1c0-0.1,0-0.1-0.1-0.3C62.8,51.8,54.5,51.5,46.7,48L46.7,48z M18.4,55
	c0,0,0.2,1.6,0.2,1.6c1.7,0.5,3.3,1,4.9,1.3c6.5,1.4,13.1,2.4,19.6,0.2l-0.1-3C35,58.5,26.6,56.6,18.4,55L18.4,55z M45.3,19
	c0,1.8,1.4,2.3,2.8,2.8c3.7,1.1,7.5,2.6,11.5,2.4C63,23.9,71.5,22.4,71,18C62.7,23,54.2,23,45.3,19z M47.3,56.5
	c6.7,3.3,15.8,5.5,22.5,1.2c1.3-0.7,1.3-0.8,0.9-2.3c-7.2,2.8-15,2.6-22.4,0.5C47.4,55.6,47.2,55.8,47.3,56.5L47.3,56.5z M17.5,48.4
	c0.2,0.6,0,1.8,0.6,2.3c3.4,1.3,7.2,1.5,10.8,2c4.2,0.5,8.4,0.1,12.4-1.3c1.7-0.5,1.8-0.9,1.2-2.6C34.2,52,25.8,51.4,17.5,48.4z
	 M19.1,60.8c0.4,2.7,2.4,3.4,4.7,3.8c4.3,0.1,8.7,0.5,12.9-0.6C32.2,64,27.8,63.3,19.1,60.8z M48.3,61.3c5.9,5.2,15.6,5.5,22,0.9
	C63.3,65.5,55.3,64.1,48.3,61.3z"/><path class="st0" d="M63.7,8.9c-2.1,0.4-4.1,0.8-6.2,1.2c-2.3,0.7-9.5-0.1-7.1,4c0.9,1.1,2.2,0.7,3.3,0.3c3.4-0.4,6.9-0.8,10.3-1.2
	C66.8,12.9,66.6,8.8,63.7,8.9z"/><path d="M63.7,8.9c2.8-0.2,3.1,4.1,0.3,4.4c-3.4,0.4-6.9,0.8-10.3,1.2c-1.4,0.6-3.2,0.6-3.7-1.1c-0.7-3.6,5.3-2.5,7.5-3.3
	C59.6,9.8,61.7,9.3,63.7,8.9z"/></svg>
